static/img/kroki/38a2eb39724d8e009acc35a15a3f7016.svg

<?xml version="1.0" encoding="us-ascii" standalone="no"?><svg xmlns="http://www.w3.org/2000/svg" xmlns:xlink="http://www.w3.org/1999/xlink" contentStyleType="text/css" height="152px" preserveAspectRatio="none" style="width:593px;height:152px;" version="1.1" viewBox="0 0 593 152" width="593px" zoomAndPan="magnify"><defs/><g><!--class azure_load_balancer--><g id="elem_azure_load_balancer"><rect codeLine="22" fill="#3D176E" height="39.7891" id="azure_load_balancer" rx="2.5" ry="2.5" style="stroke:#000D19;stroke-width:0.5;" width="212" x="7" y="7"/><ellipse cx="22" cy="26.8945" fill="#ADD1B2" rx="11" ry="11" style="stroke:#181818;stroke-width:1.0;"/><path d="M24.9688,32.5352 Q24.3906,32.832 23.75,32.9727 Q23.1094,33.1289 22.4063,33.1289 Q19.9063,33.1289 18.5781,31.4883 Q17.2656,29.832 17.2656,26.707 Q17.2656,23.582 18.5781,21.9258 Q19.9063,20.2695 22.4063,20.2695 Q23.1094,20.2695 23.75,20.4258 Q24.4063,20.582 24.9688,20.8789 L24.9688,23.5977 Q24.3438,23.0195 23.75,22.7539 Q23.1563,22.4727 22.5313,22.4727 Q21.1875,22.4727 20.5,23.5508 Q19.8125,24.6133 19.8125,26.707 Q19.8125,28.8008 20.5,29.8789 Q21.1875,30.9414 22.5313,30.9414 Q23.1563,30.9414 23.75,30.6758 Q24.3438,30.3945 24.9688,29.8164 L24.9688,32.5352 Z " fill="#000000"/><text fill="#D9B8FF" font-family="Helvetica" font-size="17" lengthAdjust="spacing" textLength="170" x="41" y="32.7798">azure_load_balancer</text></g><!--class azure_proximity_placement_group--><g id="elem_azure_proximity_placement_group"><rect codeLine="24" fill="#3D176E" height="39.7891" id="azure_proximity_placement_group" rx="2.5" ry="2.5" style="stroke:#000D19;stroke-width:0.5;" width="332" x="254" y="7"/><ellipse cx="269" cy="26.8945" fill="#ADD1B2" rx="11" ry="11" style="stroke:#181818;stroke-width:1.0;"/><path d="M271.9688,32.5352 Q271.3906,32.832 270.75,32.9727 Q270.1094,33.1289 269.4063,33.1289 Q266.9063,33.1289 265.5781,31.4883 Q264.2656,29.832 264.2656,26.707 Q264.2656,23.582 265.5781,21.9258 Q266.9063,20.2695 269.4063,20.2695 Q270.1094,20.2695 270.75,20.4258 Q271.4063,20.582 271.9688,20.8789 L271.9688,23.5977 Q271.3438,23.0195 270.75,22.7539 Q270.1563,22.4727 269.5313,22.4727 Q268.1875,22.4727 267.5,23.5508 Q266.8125,24.6133 266.8125,26.707 Q266.8125,28.8008 267.5,29.8789 Q268.1875,30.9414 269.5313,30.9414 Q270.1563,30.9414 270.75,30.6758 Q271.3438,30.3945 271.9688,29.8164 L271.9688,32.5352 Z " fill="#000000"/><text fill="#D9B8FF" font-family="Helvetica" font-size="17" lengthAdjust="spacing" textLength="290" x="288" y="32.7798">azure_proximity_placement_group</text></g><!--class azure_virtual_machine_scale_set--><g id="elem_azure_virtual_machine_scale_set"><rect codeLine="26" fill="#3D176E" height="39.7891" id="azure_virtual_machine_scale_set" rx="2.5" ry="2.5" style="stroke:#000D19;stroke-width:0.5;" width="317" x="107.5" y="106.79"/><ellipse cx="122.5" cy="126.6845" fill="#ADD1B2" rx="11" ry="11" style="stroke:#181818;stroke-width:1.0;"/><path d="M125.4688,132.3252 Q124.8906,132.622 124.25,132.7627 Q123.6094,132.9189 122.9063,132.9189 Q120.4063,132.9189 119.0781,131.2783 Q117.7656,129.622 117.7656,126.497 Q117.7656,123.372 119.0781,121.7158 Q120.4063,120.0595 122.9063,120.0595 Q123.6094,120.0595 124.25,120.2158 Q124.9063,120.372 125.4688,120.6689 L125.4688,123.3877 Q124.8438,122.8095 124.25,122.5439 Q123.6563,122.2627 123.0313,122.2627 Q121.6875,122.2627 121,123.3408 Q120.3125,124.4033 120.3125,126.497 Q120.3125,128.5908 121,129.6689 Q121.6875,130.7314 123.0313,130.7314 Q123.6563,130.7314 124.25,130.4658 Q124.8438,130.1845 125.4688,129.6064 L125.4688,132.3252 Z " fill="#000000"/><text fill="#D9B8FF" font-family="Helvetica" font-size="17" lengthAdjust="spacing" textLength="275" x="141.5" y="132.5698">azure_virtual_machine_scale_set</text></g><!--link azure_load_balancer to azure_virtual_machine_scale_set--><g id="link_azure_load_balancer_azure_virtual_machine_scale_set"><path codeLine="28" d="M143.23,47.22 C170.05,64.36 203.9753,86.0373 230.7753,103.1773 " fill="none" id="azure_load_balancer-to-azure_virtual_machine_scale_set" style="stroke:#1A83AF;stroke-width:2.0;"/><polygon fill="#1A83AF" points="235.83,106.41,230.4032,98.1912,231.6178,103.7161,226.0929,104.9307,235.83,106.41" style="stroke:#1A83AF;stroke-width:2.0;"/></g><!--link azure_proximity_placement_group to azure_virtual_machine_scale_set--><g id="link_azure_proximity_placement_group_azure_virtual_machine_scale_set"><path codeLine="29" d="M389.57,47.22 C362.58,64.36 328.4044,86.0526 301.4244,103.1926 " fill="none" id="azure_proximity_placement_group-to-azure_virtual_machine_scale_set" style="stroke:#1A83AF;stroke-width:2.0;"/><polygon fill="#1A83AF" points="296.36,106.41,306.1016,104.9602,300.5804,103.7289,301.8118,98.2077,296.36,106.41" style="stroke:#1A83AF;stroke-width:2.0;"/></g><!--SRC=[bP9FQy904CNlVee5puAfjEgba0hINgJKtae9azs9MTm_ONQZrTBltaJRiYPgw6KFytwyzsRON0fag0k_OnfrYkHwRYrD0GIQnKHsExFA4kjd6MIZSLESM-CxWGLeP8-eDkWbXoRncak-DkWSkmca1-3h5TdIYAEz9p2kaj3uW9efS2xsdcHQUWpAY6awoR8csJJjZqGqliCMPaaW_I33uL14qoRI6NLrxpzYAVV8el1e2-knLRCLSQ2kjgo9e6HhqL_zOiTd44AQ5RiDPY_7JcIGJkRB78JTrdG6oeKnpYEXzRi2PwsjS3eHsVWi_7G9vlNb6EnBmaHP44aA2Wol-dpslaxKWko7rDBlaa81HrrzdAHsB5haHf8lGIKQU2uD9ew3gbxq1_9Srk2j7yMJKJn_7zntcVIwwlp7x1i0]--></g></svg>

<svg xmlns="http://www.w3.org/2000/svg" width="593" height="152" viewBox="0 0 593 152"><rect width="212" height="39.789" x="7" y="7" fill="#3D176E" rx="2.5" ry="2.5" style="stroke:#000d19;stroke-width:.5"/><circle cx="22" cy="26.895" r="11" fill="#ADD1B2" style="stroke:#181818;stroke-width:1"/><path d="M24.969 32.535q-.578.297-1.219.438-.64.156-1.344.156-2.5 0-3.828-1.64-1.312-1.657-1.312-4.782t1.312-4.781q1.328-1.656 3.828-1.656.703 0 1.344.156.656.156 1.219.453v2.719q-.625-.578-1.219-.844-.594-.281-1.219-.281-1.343 0-2.031 1.078-.687 1.062-.687 3.156t.687 3.172q.688 1.062 2.031 1.062.625 0 1.219-.265.594-.281 1.219-.86z"/><text x="41" y="32.78" fill="#D9B8FF" font-family="Helvetica" font-size="17" textLength="170">azure_load_balancer</text><rect width="332" height="39.789" x="254" y="7" fill="#3D176E" rx="2.5" ry="2.5" style="stroke:#000d19;stroke-width:.5"/><circle cx="269" cy="26.895" r="11" fill="#ADD1B2" style="stroke:#181818;stroke-width:1"/><path d="M271.969 32.535q-.578.297-1.219.438-.64.156-1.344.156-2.5 0-3.828-1.64-1.312-1.657-1.312-4.782t1.312-4.781q1.328-1.656 3.828-1.656.703 0 1.344.156.656.156 1.219.453v2.719q-.625-.578-1.219-.844-.594-.281-1.219-.281-1.344 0-2.031 1.078-.687 1.062-.687 3.156t.687 3.172q.688 1.062 2.031 1.062.625 0 1.219-.265.594-.281 1.219-.86z"/><text x="288" y="32.78" fill="#D9B8FF" font-family="Helvetica" font-size="17" textLength="290">azure_proximity_placement_group</text><rect width="317" height="39.789" x="107.5" y="106.79" fill="#3D176E" rx="2.5" ry="2.5" style="stroke:#000d19;stroke-width:.5"/><circle cx="122.5" cy="126.684" r="11" fill="#ADD1B2" style="stroke:#181818;stroke-width:1"/><path d="M125.469 132.325q-.578.297-1.219.438-.64.156-1.344.156-2.5 0-3.828-1.64-1.312-1.657-1.312-4.782t1.312-4.781q1.328-1.656 3.828-1.656.703 0 1.344.156.656.156 1.219.453v2.719q-.625-.579-1.219-.844-.594-.281-1.219-.281-1.344 0-2.031 1.078-.687 1.062-.687 3.156t.687 3.172q.688 1.062 2.031 1.062.625 0 1.219-.265.594-.281 1.219-.86z"/><text x="141.5" y="132.57" fill="#D9B8FF" font-family="Helvetica" font-size="17" textLength="275">azure_virtual_machine_scale_set</text><path fill="none" d="M143.23 47.22c26.82 17.14 60.745 38.817 87.545 55.957" style="stroke:#1a83af;stroke-width:2"/><path fill="#1A83AF" d="m235.83 106.41-5.427-8.219 1.215 5.525-5.525 1.215z" style="stroke:#1a83af;stroke-width:2"/><path fill="none" d="M389.57 47.22c-26.99 17.14-61.166 38.833-88.146 55.973" style="stroke:#1a83af;stroke-width:2"/><path fill="#1A83AF" d="m296.36 106.41 9.742-1.45-5.522-1.231 1.232-5.521z" style="stroke:#1a83af;stroke-width:2"/></svg>
